icon/icon_weather/night_partial_cloud.svg

<?xml version="1.0" encoding="utf-8"?>
<!-- Generator: Adobe Illustrator 19.0.0, SVG Export Plug-In . SVG Version: 6.00 Build 0)  -->
<svg version="1.1" id="Layer_1" xmlns="http://www.w3.org/2000/svg" xmlns:xlink="http://www.w3.org/1999/xlink" x="0px" y="0px"
	 viewBox="0 0 512 512" style="enable-background:new 0 0 512 512;" xml:space="preserve">
<style type="text/css">
	.st0{fill:#FFF200;}
	.st1{fill:#F2F2F2;}
</style>
<g id="XMLID_80_">
	<path id="XMLID_83_" class="st0" d="M41.3,220.3c3.3-2.6,6.7-5,10.3-7.2c-8.5-7.7-16-16.6-21.9-26.7c11.3,3.5,23,5.4,35,5.7
		c69,1.3,126.2-53.7,127.5-122.7c0.2-12-1.2-23.8-4.3-35.2c32.3,20.7,52.2,56.8,51.9,95.9c4.1-0.9,8.2-1.6,12.3-2.2
		c-0.5-48.2-28.6-92-72.6-112.3l-14.4-6.7l6.1,14.6c6,14.5,9,29.8,8.7,45.6c-1.2,62.2-52.8,111.9-115,110.7
		c-15.8-0.3-31-3.8-45.2-10.4l-14.4-6.7l6.1,14.6C18.4,193.9,28.7,208.5,41.3,220.3z"/>
</g>
<g id="XMLID_173_">
	<g id="XMLID_174_">
		<path id="XMLID_178_" class="st1" d="M256.1,415.8c-40.4,0-78.8-17.6-106-48.5c-14.6,9.3-31.2,14.2-48.4,14.2
			c-49.8,0-90.3-40.5-90.3-90.3s40.5-90.3,90.3-90.3c10.4,0,20.6,1.8,30.5,5.4c25.1-45.7,72.2-74,123.9-74s98.8,28.2,123.9,74
			c9.9-3.6,20.1-5.4,30.5-5.4c49.8,0,90.3,40.5,90.3,90.3s-40.5,90.3-90.3,90.3c-17.2,0-33.8-4.9-48.4-14.2
			C334.9,398.1,296.5,415.8,256.1,415.8z M151.8,355l2.7,3.2C180,389,217,406.7,256.1,406.7s76.1-17.6,101.6-48.4l2.7-3.2l3.4,2.4
			c13.8,9.7,30,14.9,46.6,14.9c44.8,0,81.2-36.4,81.2-81.2S455.2,210,410.5,210c-10.6,0-21,2.1-30.9,6.2l-3.9,1.6l-1.9-3.7
			c-22.9-44.8-68-72.6-117.7-72.6c-49.6,0-94.7,27.8-117.7,72.7l-1.9,3.7l-3.9-1.6c-9.9-4.1-20.3-6.2-30.9-6.2
			c-44.8,0-81.2,36.4-81.2,81.2s36.4,81.2,81.2,81.2c16.7,0,32.8-5.1,46.6-14.9L151.8,355z"/>
		<g id="XMLID_175_">
			<path id="XMLID_177_" class="st1" d="M256.1,410.3c-39.5-0.4-75.8-17.6-102.1-46.9c-1.6-1.8-4.7-2.1-6.6-0.9
				c-26.8,16.5-60.3,18.1-87.7,2.3c-23.8-13.7-40-38.6-42.4-66c-5.4-61.7,55.8-107.1,113.6-87.3c2.2,0.8,5.1-0.5,6.2-2.5
				c24.2-43.2,69.3-71.3,119.1-71.3c49.9,0,94.9,28,119.1,71.3c1.1,2,3.9,3.3,6.2,2.5c57.7-19.7,119,25.5,113.6,87.3
				c-2.4,27.4-18.7,52.3-42.4,66c-27.5,15.8-61,14.2-87.7-2.3c-2-1.2-5.1-0.9-6.6,0.9C331.9,392.7,295.6,409.9,256.1,410.3
				c-7,0.1-7.1,11,0,10.9c42.3-0.4,81.7-18.7,109.8-50.1c-2.2,0.3-4.4,0.6-6.6,0.9c45.5,28,106.3,14.2,133.7-32.2
				c25.5-43.1,12.4-99.7-28.8-127.9c-25.1-17.2-57.1-20.8-85.7-11c2.1,0.8,4.1,1.7,6.2,2.5c-26-46.5-74.9-76.7-128.6-76.7
				c-53.6,0-102.5,30.2-128.6,76.7c2.1-0.8,4.1-1.7,6.2-2.5c-49.6-17-104.4,8.8-122.2,58.2C-5.6,306.5,18.8,360.2,65,379.6
				c28.8,12.1,61.5,8.7,87.9-7.6c-2.2-0.3-4.4-0.6-6.6-0.9c28.2,31.4,67.6,49.7,109.8,50.1C263.1,421.3,263.2,410.4,256.1,410.3z"/>
			<path id="XMLID_176_" class="st1" d="M147.9,358.9c27,32.6,65.3,53.2,108.2,53.2c42.8,0,81.2-20.7,108.2-53.2
				c-2.2,0.3-4.4,0.6-6.6,0.9c21.1,14.9,45.9,21.6,71.5,16c22.8-4.9,42.9-19.5,55.1-39.2c25.6-41.3,10.8-97.3-31.5-121
				c-24.7-13.8-52.8-13.7-78.6-3.1c2.1,0.8,4.1,1.7,6.2,2.5c-24.2-47.2-70.4-79.1-124.3-79.1S156,167.8,131.8,215
				c2.1-0.8,4.1-1.7,6.2-2.5c-45.7-18.9-98.4,0.2-117,47.3c-17.9,45.3,7,97.5,52.8,113.4c27.9,9.7,57.1,3.3,80.8-13.4
				c5.7-4,0.2-13.5-5.5-9.5c-23.7,16.7-53.1,22.2-79.9,9.2c-24-11.6-40.8-35.5-42.9-62.1c-2.1-26.5,9.9-52.7,31.7-68
				c23.3-16.5,51.3-17.1,77.1-6.4c2.1,0.9,5.2-0.6,6.2-2.5c22.5-43.8,64.6-73.7,114.9-73.7c50.2,0,92.4,29.8,114.8,73.7
				c1,1.9,4.1,3.4,6.2,2.5c25.5-10.5,53-10.2,76.2,5.7c22.3,15.3,34.7,41.8,32.6,68.7c-2.1,26.2-18.4,49.8-41.8,61.5
				c-27.1,13.6-56.9,8.3-81-8.7c-1.8-1.3-5.2-0.9-6.6,0.9c-25.2,30.4-60.3,50-100.4,50s-75.2-19.6-100.4-50
				C151.2,345.7,143.4,353.5,147.9,358.9z"/>
		</g>
	</g>
</g>
</svg>

<svg width="512" height="512" viewBox="0 0 512 512" fill="none" xmlns="http://www.w3.org/2000/svg">
<path d="M41.3 220.3C44.6 217.7 48 215.3 51.6 213.1C43.1 205.4 35.6 196.5 29.7 186.4C41 189.9 52.7 191.8 64.7 192.1C133.7 193.4 190.9 138.4 192.2 69.4C192.4 57.4 191 45.6 187.9 34.2C220.2 54.9 240.1 91 239.8 130.1C243.9 129.2 248 128.5 252.1 127.9C251.6 79.7 223.5 35.9 179.5 15.6L165.1 8.89999L171.2 23.5C177.2 38 180.2 53.3 179.9 69.1C178.7 131.3 127.1 181 64.9 179.8C49.1 179.5 33.9 176 19.7 169.4L5.29999 162.7L11.4 177.3C18.4 193.9 28.7 208.5 41.3 220.3Z" fill="#FFF200"/>
<path d="M256.1 415.8C215.7 415.8 177.3 398.2 150.1 367.3C135.5 376.6 118.9 381.5 101.7 381.5C51.9 381.5 11.4 341 11.4 291.2C11.4 241.4 51.9 200.9 101.7 200.9C112.1 200.9 122.3 202.7 132.2 206.3C157.3 160.6 204.4 132.3 256.1 132.3C307.8 132.3 354.9 160.5 380 206.3C389.9 202.7 400.1 200.9 410.5 200.9C460.3 200.9 500.8 241.4 500.8 291.2C500.8 341 460.3 381.5 410.5 381.5C393.3 381.5 376.7 376.6 362.1 367.3C334.9 398.1 296.5 415.8 256.1 415.8ZM151.8 355L154.5 358.2C180 389 217 406.7 256.1 406.7C295.2 406.7 332.2 389.1 357.7 358.3L360.4 355.1L363.8 357.5C377.6 367.2 393.8 372.4 410.4 372.4C455.2 372.4 491.6 336 491.6 291.2C491.6 246.4 455.2 210 410.5 210C399.9 210 389.5 212.1 379.6 216.2L375.7 217.8L373.8 214.1C350.9 169.3 305.8 141.5 256.1 141.5C206.5 141.5 161.4 169.3 138.4 214.2L136.5 217.9L132.6 216.3C122.7 212.2 112.3 210.1 101.7 210.1C56.9 210.1 20.5 246.5 20.5 291.3C20.5 336.1 56.9 372.5 101.7 372.5C118.4 372.5 134.5 367.4 148.3 357.6L151.8 355Z" fill="#B0B5B5"/>
<path d="M256.1 410.3C216.6 409.9 180.3 392.7 154 363.4C152.4 361.6 149.3 361.3 147.4 362.5C120.6 379 87.1 380.6 59.7 364.8C35.9 351.1 19.7 326.2 17.3 298.8C11.9 237.1 73.1 191.7 130.9 211.5C133.1 212.3 136 211 137.1 209C161.3 165.8 206.4 137.7 256.2 137.7C306.1 137.7 351.1 165.7 375.3 209C376.4 211 379.2 212.3 381.5 211.5C439.2 191.8 500.5 237 495.1 298.8C492.7 326.2 476.4 351.1 452.7 364.8C425.2 380.6 391.7 379 365 362.5C363 361.3 359.9 361.6 358.4 363.4C331.9 392.7 295.6 409.9 256.1 410.3C249.1 410.4 249 421.3 256.1 421.2C298.4 420.8 337.8 402.5 365.9 371.1C363.7 371.4 361.5 371.7 359.3 372C404.8 400 465.6 386.2 493 339.8C518.5 296.7 505.4 240.1 464.2 211.9C439.1 194.7 407.1 191.1 378.5 200.9C380.6 201.7 382.6 202.6 384.7 203.4C358.7 156.9 309.8 126.7 256.1 126.7C202.5 126.7 153.6 156.9 127.5 203.4C129.6 202.6 131.6 201.7 133.7 200.9C84.1 183.9 29.3 209.7 11.5 259.1C-5.6 306.5 18.8 360.2 65 379.6C93.8 391.7 126.5 388.3 152.9 372C150.7 371.7 148.5 371.4 146.3 371.1C174.5 402.5 213.9 420.8 256.1 421.2C263.1 421.3 263.2 410.4 256.1 410.3Z" fill="#B0B5B5"/>
<path d="M147.9 358.9C174.9 391.5 213.2 412.1 256.1 412.1C298.9 412.1 337.3 391.4 364.3 358.9C362.1 359.2 359.9 359.5 357.7 359.8C378.8 374.7 403.6 381.4 429.2 375.8C452 370.9 472.1 356.3 484.3 336.6C509.9 295.3 495.1 239.3 452.8 215.6C428.1 201.8 400 201.9 374.2 212.5C376.3 213.3 378.3 214.2 380.4 215C356.2 167.8 310 135.9 256.1 135.9C202.2 135.9 156 167.8 131.8 215C133.9 214.2 135.9 213.3 138 212.5C92.3 193.6 39.6 212.7 21 259.8C3.10001 305.1 28 357.3 73.8 373.2C101.7 382.9 130.9 376.5 154.6 359.8C160.3 355.8 154.8 346.3 149.1 350.3C125.4 367 96 372.5 69.2 359.5C45.2 347.9 28.4 324 26.3 297.4C24.2 270.9 36.2 244.7 58 229.4C81.3 212.9 109.3 212.3 135.1 223C137.2 223.9 140.3 222.4 141.3 220.5C163.8 176.7 205.9 146.8 256.2 146.8C306.4 146.8 348.6 176.6 371 220.5C372 222.4 375.1 223.9 377.2 223C402.7 212.5 430.2 212.8 453.4 228.7C475.7 244 488.1 270.5 486 297.4C483.9 323.6 467.6 347.2 444.2 358.9C417.1 372.5 387.3 367.2 363.2 350.2C361.4 348.9 358 349.3 356.6 351.1C331.4 381.5 296.3 401.1 256.2 401.1C216.1 401.1 181 381.5 155.8 351.1C151.2 345.7 143.4 353.5 147.9 358.9Z" fill="#B0B5B5"/>
</svg>
